img/menu.svg

<?xml version="1.0" encoding="UTF-8" standalone="no"?>
<!-- Generator: Adobe Illustrator 19.0.0, SVG Export Plug-In . SVG Version: 6.00 Build 0)  -->

<svg
   xmlns:dc="http://purl.org/dc/elements/1.1/"
   xmlns:cc="http://creativecommons.org/ns#"
   xmlns:rdf="http://www.w3.org/1999/02/22-rdf-syntax-ns#"
   xmlns:svg="http://www.w3.org/2000/svg"
   xmlns="http://www.w3.org/2000/svg"
   xmlns:sodipodi="http://sodipodi.sourceforge.net/DTD/sodipodi-0.dtd"
   xmlns:inkscape="http://www.inkscape.org/namespaces/inkscape"
   version="1.1"
   id="Capa_1"
   x="0px"
   y="0px"
   viewBox="0 0 32 32"
   xml:space="preserve"
   sodipodi:docname="menu.svg"
   inkscape:version="0.92.4 (5da689c313, 2019-01-14)"
   width="32"
   height="32"><metadata
   id="metadata51"><rdf:RDF><cc:Work
       rdf:about=""><dc:format>image/svg+xml</dc:format><dc:type
         rdf:resource="http://purl.org/dc/dcmitype/StillImage" /><dc:title></dc:title></cc:Work></rdf:RDF></metadata><defs
   id="defs49" /><sodipodi:namedview
   pagecolor="#ffffff"
   bordercolor="#666666"
   borderopacity="1"
   objecttolerance="10"
   gridtolerance="10"
   guidetolerance="10"
   inkscape:pageopacity="0"
   inkscape:pageshadow="2"
   inkscape:window-width="1582"
   inkscape:window-height="1080"
   id="namedview47"
   showgrid="false"
   inkscape:zoom="20.85965"
   inkscape:cx="15.645386"
   inkscape:cy="17.413238"
   inkscape:window-x="0"
   inkscape:window-y="0"
   inkscape:window-maximized="0"
   inkscape:current-layer="g14" />
<g
   transform="translate(1,-479)"
   id="g14">
	<g
   id="g12"
   style="fill:#f8f8ff;fill-opacity:1;stroke-width:16"
   transform="matrix(0.0625,0,0,0.0625,-0.9375,479.0625)">
		<g
   id="g10"
   style="fill:#f8f8ff;fill-opacity:1;stroke-width:16">
			<path
   d="M 255,-1 C 113.618,-1 -1,113.618 -1,255 -1,396.382 113.618,511 255,511 396.382,511 511,396.382 511,255 511,113.618 396.382,-1 255,-1 Z m 0,469.333 C 137.182,468.333 41.667,372.818 41.667,255 41.667,137.182 137.182,41.667 255,41.667 c 117.818,0 213.333,95.515 213.333,213.333 0,117.818 -95.515,213.333 -213.333,213.333 z"
   id="path2"
   style="fill:#f8f8ff;fill-opacity:1;stroke-width:16"
   inkscape:connector-curvature="0" />
			<path
   d="M 361.667,148.333 H 148.333 c -11.782,0 -21.333,9.551 -21.333,21.333 0,11.782 9.551,21.333 21.333,21.333 h 213.333 c 11.782,0 21.333,-9.551 21.333,-21.333 10e-4,-11.781 -9.55,-21.333 -21.332,-21.333 z"
   id="path4"
   style="fill:#f8f8ff;fill-opacity:1;stroke-width:16"
   inkscape:connector-curvature="0" />
			<path
   d="M 361.667,233.667 H 148.333 C 136.551,233.667 127,243.218 127,255 c 0,11.782 9.551,21.333 21.333,21.333 h 213.333 c 11.782,0 21.333,-9.551 21.333,-21.333 0,-11.782 -9.55,-21.333 -21.332,-21.333 z"
   id="path6"
   style="fill:#f8f8ff;fill-opacity:1;stroke-width:16"
   inkscape:connector-curvature="0" />
			<path
   d="M 361.667,319 H 148.333 C 136.551,319 127,328.551 127,340.333 c 0,11.782 9.551,21.333 21.333,21.333 h 213.333 c 11.782,0 21.333,-9.551 21.333,-21.333 C 383,328.551 373.449,319 361.667,319 Z"
   id="path8"
   style="fill:#f8f8ff;fill-opacity:1;stroke-width:16"
   inkscape:connector-curvature="0" />
		</g>
	</g>
</g>
<g
   id="g16"
   transform="translate(0,-480)">
</g>
<g
   id="g18"
   transform="translate(0,-480)">
</g>
<g
   id="g20"
   transform="translate(0,-480)">
</g>
<g
   id="g22"
   transform="translate(0,-480)">
</g>
<g
   id="g24"
   transform="translate(0,-480)">
</g>
<g
   id="g26"
   transform="translate(0,-480)">
</g>
<g
   id="g28"
   transform="translate(0,-480)">
</g>
<g
   id="g30"
   transform="translate(0,-480)">
</g>
<g
   id="g32"
   transform="translate(0,-480)">
</g>
<g
   id="g34"
   transform="translate(0,-480)">
</g>
<g
   id="g36"
   transform="translate(0,-480)">
</g>
<g
   id="g38"
   transform="translate(0,-480)">
</g>
<g
   id="g40"
   transform="translate(0,-480)">
</g>
<g
   id="g42"
   transform="translate(0,-480)">
</g>
<g
   id="g44"
   transform="translate(0,-480)">
</g>
</svg>

<?xml version="1.0" encoding="UTF-8" standalone="no"?>
<!-- Generator: Adobe Illustrator 19.0.0, SVG Export Plug-In . SVG Version: 6.00 Build 0)  -->

<svg
   xmlns:dc="http://purl.org/dc/elements/1.1/"
   xmlns:cc="http://creativecommons.org/ns#"
   xmlns:rdf="http://www.w3.org/1999/02/22-rdf-syntax-ns#"
   xmlns:svg="http://www.w3.org/2000/svg"
   xmlns="http://www.w3.org/2000/svg"
   xmlns:sodipodi="http://sodipodi.sourceforge.net/DTD/sodipodi-0.dtd"
   xmlns:inkscape="http://www.inkscape.org/namespaces/inkscape"
   version="1.1"
   id="Capa_1"
   x="0px"
   y="0px"
   viewBox="0 0 512 512"
   style="enable-background:new 0 0 512 512;"
   xml:space="preserve"
   sodipodi:docname="menu.svg"
   inkscape:version="0.92.4 (5da689c313, 2019-01-14)"><metadata
   id="metadata51"><rdf:RDF><cc:Work
       rdf:about=""><dc:format>image/svg+xml</dc:format><dc:type
         rdf:resource="http://purl.org/dc/dcmitype/StillImage" /></cc:Work></rdf:RDF></metadata><defs
   id="defs49" /><sodipodi:namedview
   pagecolor="#ffffff"
   bordercolor="#666666"
   borderopacity="1"
   objecttolerance="10"
   gridtolerance="10"
   guidetolerance="10"
   inkscape:pageopacity="0"
   inkscape:pageshadow="2"
   inkscape:window-width="1582"
   inkscape:window-height="1475"
   id="namedview47"
   showgrid="false"
   inkscape:zoom="0.4609375"
   inkscape:cx="143.18644"
   inkscape:cy="256"
   inkscape:window-x="0"
   inkscape:window-y="0"
   inkscape:window-maximized="0"
   inkscape:current-layer="g14" />
<g
   transform="translate(1 1)"
   id="g14">
	<g
   id="g12"
   style="fill:#f8f8ff;fill-opacity:1">
		<g
   id="g10"
   style="fill:#f8f8ff;fill-opacity:1">
			<path
   d="M255-1C113.618-1-1,113.618-1,255s114.618,256,256,256s256-114.618,256-256S396.382-1,255-1z M255,468.333     c-117.818,0-213.333-95.515-213.333-213.333S137.182,41.667,255,41.667S468.333,137.182,468.333,255S372.818,468.333,255,468.333     z"
   id="path2"
   style="fill:#f8f8ff;fill-opacity:1" />
			<path
   d="M361.667,148.333H148.333c-11.782,0-21.333,9.551-21.333,21.333c0,11.782,9.551,21.333,21.333,21.333h213.333     c11.782,0,21.333-9.551,21.333-21.333C383,157.885,373.449,148.333,361.667,148.333z"
   id="path4"
   style="fill:#f8f8ff;fill-opacity:1" />
			<path
   d="M361.667,233.667H148.333C136.551,233.667,127,243.218,127,255s9.551,21.333,21.333,21.333h213.333     c11.782,0,21.333-9.551,21.333-21.333S373.449,233.667,361.667,233.667z"
   id="path6"
   style="fill:#f8f8ff;fill-opacity:1" />
			<path
   d="M361.667,319H148.333C136.551,319,127,328.551,127,340.333c0,11.782,9.551,21.333,21.333,21.333h213.333     c11.782,0,21.333-9.551,21.333-21.333C383,328.551,373.449,319,361.667,319z"
   id="path8"
   style="fill:#f8f8ff;fill-opacity:1" />
		</g>
	</g>
</g>
<g
   id="g16">
</g>
<g
   id="g18">
</g>
<g
   id="g20">
</g>
<g
   id="g22">
</g>
<g
   id="g24">
</g>
<g
   id="g26">
</g>
<g
   id="g28">
</g>
<g
   id="g30">
</g>
<g
   id="g32">
</g>
<g
   id="g34">
</g>
<g
   id="g36">
</g>
<g
   id="g38">
</g>
<g
   id="g40">
</g>
<g
   id="g42">
</g>
<g
   id="g44">
</g>
</svg>
